muebles/img/delivery.svg

<svg width="41" height="39" viewBox="0 0 41 39" fill="none" xmlns="http://www.w3.org/2000/svg">
<g clip-path="url(#clip0)">
<g clip-path="url(#clip1)">
<path d="M38.9854 2.78229H25.5101C24.3992 2.78229 23.4955 3.64189 23.4955 4.69854V16.9829C23.4955 18.0395 24.3992 18.8991 25.5101 18.8991H38.9854C40.0962 18.8991 41 18.0395 41 16.9829V4.69854C41 3.64189 40.0962 2.78229 38.9854 2.78229ZM34.2891 4.30572V6.88848L34.0338 6.74985C33.7781 6.61091 33.4628 6.61655 33.213 6.76493L32.3177 7.29593L31.4882 6.77545C31.2389 6.61906 30.9098 6.60886 30.6505 6.74962L30.3925 6.88963V4.30572H34.2891ZM39.3984 16.9829C39.3984 17.1995 39.2131 17.3757 38.9854 17.3757H25.5101C25.2823 17.3757 25.097 17.1995 25.097 16.9829V4.69854C25.097 4.48191 25.2823 4.30572 25.5101 4.30572H28.791V8.20085C28.791 8.77366 29.4637 9.14729 29.9885 8.86256L31.0168 8.30475L31.8646 8.83673C32.1232 8.99898 32.4665 9.00309 32.7292 8.84724L33.6547 8.29835L34.6926 8.86233C35.2175 9.14744 35.8906 8.77397 35.8906 8.20085V4.30572H38.9854C39.2131 4.30572 39.3984 4.48191 39.3984 4.69854V16.9829Z" fill="black"/>
<path d="M31.0995 13.8881H28.0842C27.6419 13.8881 27.2834 14.2292 27.2834 14.6498C27.2834 15.0704 27.6419 15.4115 28.0842 15.4115H31.0995C31.5418 15.4115 31.9003 15.0704 31.9003 14.6498C31.9003 14.2292 31.5418 13.8881 31.0995 13.8881Z" fill="black"/>
<path d="M29.2806 21.3266H6.71303C3.8946 21.3266 1.60156 19.1455 1.60156 16.4645C1.60156 13.7836 3.89452 11.6024 6.71303 11.6024H17.0044C17.4467 11.6024 17.8052 11.2613 17.8052 10.8407C17.8052 10.4201 17.4467 10.079 17.0044 10.079H6.71303C3.01142 10.079 0 12.9436 0 16.4645C0 19.9855 3.01142 22.85 6.71303 22.85H29.2806C31.0046 22.85 32.4071 24.1843 32.4071 25.8242C32.4071 27.4641 31.0046 28.7982 29.2806 28.7982H23.0195L23.8502 28.008C24.1629 27.7106 24.1629 27.2282 23.8502 26.9307C23.5375 26.6333 23.0305 26.6333 22.7177 26.9307L20.5199 29.0212C20.2117 29.315 20.2117 29.8048 20.5199 30.0985L22.7177 32.1891C23.0262 32.4825 23.5417 32.4825 23.8502 32.1891C24.1629 31.8916 24.1629 31.4093 23.8502 31.1118L23.0195 30.3216H29.2806C31.8877 30.3216 34.0087 28.304 34.0087 25.8241C34.0087 23.3442 31.8877 21.3266 29.2806 21.3266Z" fill="black"/>
<path d="M12.8622 24.7079C9.82518 24.7079 7.35437 27.0582 7.35437 29.9471C7.35437 31.0257 7.70711 32.1312 8.38674 33.0012L12.2191 37.9149C12.5341 38.3187 13.1904 38.3186 13.5053 37.9149L17.3377 33.0012C18.0177 32.132 18.3701 31.0252 18.3701 29.9471C18.3701 27.0582 15.8993 24.7079 12.8622 24.7079ZM16.042 32.1039C16.0361 32.1118 16.0304 32.1199 16.0247 32.1279L12.8622 36.1826L9.69986 32.1279C9.23997 31.4657 8.95593 30.7501 8.95593 29.9471C8.95593 27.8983 10.7083 26.2314 12.8622 26.2314C15.0162 26.2314 16.7685 27.8983 16.7685 29.9471C16.7685 30.7253 16.5173 31.4711 16.042 32.1039Z" fill="black"/>
<path d="M12.8622 27.5623C11.4799 27.5623 10.3552 28.6322 10.3552 29.9471C10.3552 31.2621 11.4798 32.3319 12.8622 32.3319C14.2447 32.3319 15.3693 31.2621 15.3693 29.9471C15.3693 28.6322 14.2446 27.5623 12.8622 27.5623ZM12.8622 30.8085C12.363 30.8085 11.9567 30.4221 11.9567 29.9471C11.9567 29.4721 12.363 29.0858 12.8622 29.0858C13.3615 29.0858 13.7678 29.4721 13.7678 29.9471C13.7678 30.4221 13.3615 30.8085 12.8622 30.8085Z" fill="black"/>
<path d="M19.9058 11.1318C20.0713 11.5161 20.5493 11.7024 20.9516 11.5439C21.3545 11.3851 21.552 10.9324 21.3849 10.5491C21.2177 10.1655 20.7421 9.97862 20.339 10.137C19.9365 10.2952 19.7381 10.7491 19.9058 11.1318Z" fill="black"/>
</g>
</g>
<defs>
<clipPath id="clip0">
<rect width="41" height="39" fill="white"/>
</clipPath>
<clipPath id="clip1">
<rect width="41" height="39" fill="white" transform="translate(0 1)"/>
</clipPath>
</defs>
</svg>

<svg width="41" height="39" fill="none" xmlns="http://www.w3.org/2000/svg"><g clip-path="url(#clip0)"><g clip-path="url(#clip1)" fill="#000"><path d="M38.985 2.782H25.51c-1.11 0-2.015.86-2.015 1.917v12.284c0 1.056.904 1.916 2.015 1.916h13.475c1.111 0 2.015-.86 2.015-1.916V4.699c0-1.057-.904-1.917-2.015-1.917zM34.29 4.306v2.582l-.255-.138a.836.836 0 00-.821.015l-.895.53-.83-.52a.843.843 0 00-.837-.025l-.259.14V4.306h3.897zm5.11 12.677a.404.404 0 01-.414.393H25.51a.404.404 0 01-.413-.393V4.699c0-.217.185-.393.413-.393h3.281V8.2c0 .573.673.946 1.197.662l1.029-.558.848.532a.843.843 0 00.864.01l.926-.549 1.038.564c.525.285 1.198-.088 1.198-.661V4.306h3.094c.228 0 .413.176.413.393v12.284z"/><path d="M31.1 13.888h-3.016c-.442 0-.8.341-.8.762 0 .42.358.761.8.761H31.1c.443 0 .801-.34.801-.761 0-.42-.358-.762-.8-.762zm-1.82 7.439H6.714c-2.818 0-5.111-2.182-5.111-4.863 0-2.68 2.293-4.862 5.111-4.862h10.291c.443 0 .801-.34.801-.761 0-.42-.358-.762-.8-.762H6.712C3.011 10.079 0 12.944 0 16.465c0 3.52 3.011 6.385 6.713 6.385h22.568c1.724 0 3.126 1.334 3.126 2.974 0 1.64-1.402 2.974-3.126 2.974H23.02l.83-.79a.736.736 0 000-1.077.83.83 0 00-1.132 0l-2.198 2.09a.743.743 0 000 1.078l2.198 2.09a.839.839 0 001.132 0 .736.736 0 000-1.077l-.83-.79h6.26c2.608 0 4.729-2.018 4.729-4.498 0-2.48-2.121-4.497-4.728-4.497z"/><path d="M12.862 24.708c-3.037 0-5.508 2.35-5.508 5.24 0 1.078.353 2.183 1.033 3.053l3.832 4.914c.315.404.971.404 1.286 0L17.338 33c.68-.869 1.032-1.976 1.032-3.054 0-2.889-2.47-5.24-5.508-5.24zm3.18 7.396l-.017.024-3.163 4.055L9.7 32.128c-.46-.662-.744-1.378-.744-2.18 0-2.05 1.752-3.717 3.906-3.717s3.906 1.667 3.906 3.716c0 .778-.25 1.524-.726 2.157z"/><path d="M12.862 27.562c-1.382 0-2.507 1.07-2.507 2.385 0 1.315 1.125 2.385 2.507 2.385 1.383 0 2.507-1.07 2.507-2.385 0-1.315-1.124-2.385-2.507-2.385zm0 3.246c-.499 0-.905-.386-.905-.86 0-.476.406-.862.905-.862.5 0 .906.386.906.861s-.407.861-.906.861zm7.044-19.676c.165.384.643.57 1.046.412.402-.159.6-.612.433-.995-.167-.383-.643-.57-1.046-.412-.402.158-.6.612-.433.995z"/></g></g><defs><clipPath id="clip0"><path fill="#fff" d="M0 0h41v39H0z"/></clipPath><clipPath id="clip1"><path fill="#fff" transform="translate(0 1)" d="M0 0h41v39H0z"/></clipPath></defs></svg>
